src/images/svg/app-download/apk.svg

<svg width="113" height="40" viewBox="0 0 113 40" fill="none" xmlns="http://www.w3.org/2000/svg">
<path d="M0.000732422 4C0.000732422 1.79086 1.79159 0 4.00073 0H109.001C111.21 0 113.001 1.79086 113.001 4V36C113.001 38.2091 111.21 40 109.001 40H4.00073C1.79159 40 0.000732422 38.2091 0.000732422 36V4Z" fill="#0E0E0E"/>
<path d="M25.5241 24.0861C24.9721 24.0862 24.5245 23.6395 24.5244 23.0885C24.5243 22.5374 24.9717 22.0906 25.5237 22.0905C26.0757 22.0904 26.5232 22.537 26.5233 23.0881C26.5227 23.6388 26.0758 24.0852 25.5241 24.0861ZM14.4778 24.0861C13.9258 24.0862 13.4782 23.6395 13.4781 23.0885C13.478 22.5374 13.9254 22.0906 14.4774 22.0905C15.0294 22.0904 15.4769 22.537 15.477 23.0881C15.4765 23.6389 15.0295 24.0853 14.4778 24.0861ZM25.8825 18.0762L27.8797 14.6228C27.954 14.4945 27.9541 14.3363 27.8799 14.2079C27.8058 14.0795 27.6686 14.0003 27.5201 14.0002C27.3716 14.0001 27.2344 14.0791 27.1601 14.2075L25.1376 17.7045C23.591 16.9998 21.8541 16.6075 20.0007 16.6075C18.1474 16.6075 16.4106 17.0004 14.864 17.7045L12.8417 14.2075C12.7675 14.0791 12.6304 14 12.4819 14C12.3334 14 12.1962 14.079 12.122 14.2074C12.0478 14.3357 12.0477 14.4939 12.122 14.6222L14.1194 18.0762C10.6897 19.9385 8.34387 23.4047 8.00073 27.5H32.0011C31.6576 23.4047 29.3119 19.9385 25.8825 18.0762Z" fill="white"/>
<path d="M40.7437 14V7.60156H42.5498C43.1064 7.60156 43.5986 7.72461 44.0264 7.9707C44.4541 8.2168 44.7837 8.56689 45.0151 9.021C45.2495 9.4751 45.3682 9.99658 45.3711 10.5854V10.9941C45.3711 11.5977 45.2539 12.1265 45.0195 12.5806C44.7881 13.0347 44.4556 13.3833 44.022 13.6265C43.5913 13.8696 43.0889 13.9941 42.5146 14H40.7437ZM41.5874 8.2959V13.3101H42.4751C43.1255 13.3101 43.6309 13.1079 43.9912 12.7036C44.3545 12.2993 44.5361 11.7236 44.5361 10.9766V10.603C44.5361 9.87646 44.3647 9.3125 44.022 8.91113C43.6821 8.50684 43.1987 8.30176 42.5718 8.2959H41.5874ZM47.4058 14H46.5928V9.24512H47.4058V14ZM46.5269 7.98389C46.5269 7.85205 46.5664 7.74072 46.6455 7.6499C46.7275 7.55908 46.8477 7.51367 47.0059 7.51367C47.1641 7.51367 47.2842 7.55908 47.3662 7.6499C47.4482 7.74072 47.4893 7.85205 47.4893 7.98389C47.4893 8.11572 47.4482 8.22559 47.3662 8.31348C47.2842 8.40137 47.1641 8.44531 47.0059 8.44531C46.8477 8.44531 46.7275 8.40137 46.6455 8.31348C46.5664 8.22559 46.5269 8.11572 46.5269 7.98389ZM51.0093 9.97461C50.8862 9.9541 50.7529 9.94385 50.6094 9.94385C50.0762 9.94385 49.7144 10.1709 49.5239 10.625V14H48.7109V9.24512H49.502L49.5151 9.79443C49.7817 9.36963 50.1597 9.15723 50.6489 9.15723C50.8071 9.15723 50.9272 9.17773 51.0093 9.21875V9.97461ZM53.646 14.0879C53.0015 14.0879 52.4771 13.877 52.0728 13.4551C51.6685 13.0303 51.4663 12.4634 51.4663 11.7544V11.605C51.4663 11.1333 51.5557 10.7129 51.7344 10.3438C51.916 9.97168 52.168 9.68164 52.4902 9.47363C52.8154 9.2627 53.167 9.15723 53.5449 9.15723C54.1631 9.15723 54.6436 9.36084 54.9863 9.76807C55.3291 10.1753 55.5005 10.7583 55.5005 11.5171V11.8555H52.2793C52.291 12.3242 52.4272 12.7036 52.688 12.9937C52.9517 13.2808 53.2856 13.4243 53.6899 13.4243C53.9771 13.4243 54.2202 13.3657 54.4194 13.2485C54.6187 13.1313 54.793 12.9761 54.9424 12.7827L55.439 13.1694C55.0405 13.7817 54.4429 14.0879 53.646 14.0879ZM53.5449 9.8252C53.2168 9.8252 52.9414 9.94531 52.7188 10.1855C52.4961 10.4229 52.3584 10.7568 52.3057 11.1875H54.6875V11.126C54.6641 10.7129 54.5527 10.3936 54.3535 10.168C54.1543 9.93945 53.8848 9.8252 53.5449 9.8252ZM58.3525 13.4243C58.6426 13.4243 58.896 13.3364 59.1128 13.1606C59.3296 12.9849 59.4497 12.7651 59.4731 12.5015H60.2422C60.2275 12.7739 60.1338 13.0332 59.9609 13.2793C59.7881 13.5254 59.5566 13.7217 59.2666 13.8682C58.9795 14.0146 58.6748 14.0879 58.3525 14.0879C57.7051 14.0879 57.1895 13.8726 56.8057 13.4419C56.4248 13.0083 56.2344 12.4165 56.2344 11.6665V11.5303C56.2344 11.0674 56.3193 10.6558 56.4893 10.2954C56.6592 9.93506 56.9023 9.65527 57.2188 9.45605C57.5381 9.25684 57.9146 9.15723 58.3481 9.15723C58.8813 9.15723 59.3237 9.31689 59.6753 9.63623C60.0298 9.95557 60.2188 10.3701 60.2422 10.8799H59.4731C59.4497 10.5723 59.3325 10.3203 59.1216 10.124C58.9136 9.9248 58.6558 9.8252 58.3481 9.8252C57.9351 9.8252 57.6143 9.97461 57.3857 10.2734C57.1602 10.5693 57.0474 10.9985 57.0474 11.561V11.7148C57.0474 12.2627 57.1602 12.6846 57.3857 12.9805C57.6113 13.2764 57.9336 13.4243 58.3525 13.4243ZM62.2593 8.09375V9.24512H63.147V9.87354H62.2593V12.8223C62.2593 13.0127 62.2988 13.1562 62.3779 13.2529C62.457 13.3467 62.5918 13.3936 62.7822 13.3936C62.876 13.3936 63.0049 13.376 63.1689 13.3408V14C62.9551 14.0586 62.7471 14.0879 62.5449 14.0879C62.1816 14.0879 61.9077 13.978 61.7231 13.7583C61.5386 13.5386 61.4463 13.2266 61.4463 12.8223V9.87354H60.5806V9.24512H61.4463V8.09375H62.2593ZM66.1353 11.583C66.1353 10.8535 66.3081 10.2676 66.6538 9.8252C66.9995 9.37988 67.4521 9.15723 68.0117 9.15723C68.5684 9.15723 69.0093 9.34766 69.3345 9.72852V7.25H70.1475V14H69.4004L69.3608 13.4902C69.0356 13.8887 68.583 14.0879 68.0029 14.0879C67.4521 14.0879 67.0024 13.8623 66.6538 13.4111C66.3081 12.96 66.1353 12.3711 66.1353 11.6445V11.583ZM66.9482 11.6753C66.9482 12.2144 67.0596 12.6362 67.2822 12.9409C67.5049 13.2456 67.8125 13.3979 68.2051 13.3979C68.7207 13.3979 69.0972 13.1665 69.3345 12.7036V10.5195C69.0913 10.0713 68.7178 9.84717 68.2139 9.84717C67.8154 9.84717 67.5049 10.001 67.2822 10.3086C67.0596 10.6162 66.9482 11.0718 66.9482 11.6753ZM71.1978 11.5786C71.1978 11.1128 71.2886 10.6938 71.4702 10.3218C71.6548 9.94971 71.9097 9.6626 72.2349 9.46045C72.563 9.2583 72.9365 9.15723 73.3555 9.15723C74.0029 9.15723 74.5259 9.38135 74.9243 9.82959C75.3257 10.2778 75.5264 10.874 75.5264 11.6182V11.6753C75.5264 12.1382 75.437 12.5542 75.2583 12.9233C75.0825 13.2896 74.8291 13.5752 74.498 13.7803C74.1699 13.9854 73.792 14.0879 73.3643 14.0879C72.7197 14.0879 72.1968 13.8638 71.7954 13.4155C71.397 12.9673 71.1978 12.374 71.1978 11.6357V11.5786ZM72.0151 11.6753C72.0151 12.2026 72.1367 12.626 72.3799 12.9453C72.626 13.2646 72.9541 13.4243 73.3643 13.4243C73.7773 13.4243 74.1055 13.2632 74.3486 12.9409C74.5918 12.6157 74.7134 12.1616 74.7134 11.5786C74.7134 11.0571 74.5889 10.6353 74.3398 10.313C74.0938 9.98779 73.7656 9.8252 73.3555 9.8252C72.9541 9.8252 72.6304 9.98486 72.3843 10.3042C72.1382 10.6235 72.0151 11.0806 72.0151 11.6753ZM80.7559 12.8794L81.6699 9.24512H82.4829L81.0986 14H80.4395L79.2837 10.3965L78.1587 14H77.4995L76.1196 9.24512H76.9282L77.8643 12.8047L78.9717 9.24512H79.6265L80.7559 12.8794ZM84.0825 9.24512L84.1089 9.84277C84.4722 9.38574 84.9468 9.15723 85.5327 9.15723C86.5376 9.15723 87.0444 9.72412 87.0532 10.8579V14H86.2402V10.8535C86.2373 10.5107 86.1582 10.2573 86.0029 10.0933C85.8506 9.9292 85.6118 9.84717 85.2866 9.84717C85.0229 9.84717 84.7915 9.91748 84.5923 10.0581C84.3931 10.1987 84.2378 10.3833 84.1265 10.6118V14H83.3135V9.24512H84.0825ZM89.1626 14H88.3496V7.25H89.1626V14ZM90.2524 11.5786C90.2524 11.1128 90.3433 10.6938 90.5249 10.3218C90.7095 9.94971 90.9644 9.6626 91.2896 9.46045C91.6177 9.2583 91.9912 9.15723 92.4102 9.15723C93.0576 9.15723 93.5806 9.38135 93.979 9.82959C94.3804 10.2778 94.5811 10.874 94.5811 11.6182V11.6753C94.5811 12.1382 94.4917 12.5542 94.313 12.9233C94.1372 13.2896 93.8838 13.5752 93.5527 13.7803C93.2246 13.9854 92.8467 14.0879 92.4189 14.0879C91.7744 14.0879 91.2515 13.8638 90.8501 13.4155C90.4517 12.9673 90.2524 12.374 90.2524 11.6357V11.5786ZM91.0698 11.6753C91.0698 12.2026 91.1914 12.626 91.4346 12.9453C91.6807 13.2646 92.0088 13.4243 92.4189 13.4243C92.832 13.4243 93.1602 13.2632 93.4033 12.9409C93.6465 12.6157 93.7681 12.1616 93.7681 11.5786C93.7681 11.0571 93.6436 10.6353 93.3945 10.313C93.1484 9.98779 92.8203 9.8252 92.4102 9.8252C92.0088 9.8252 91.6851 9.98486 91.439 10.3042C91.1929 10.6235 91.0698 11.0806 91.0698 11.6753ZM98.5361 14C98.4893 13.9062 98.4512 13.7393 98.4219 13.499C98.0439 13.8916 97.5928 14.0879 97.0684 14.0879C96.5996 14.0879 96.2144 13.9561 95.9126 13.6924C95.6138 13.4258 95.4644 13.0889 95.4644 12.6816C95.4644 12.1865 95.6519 11.8027 96.0269 11.5303C96.4048 11.2549 96.9351 11.1172 97.6177 11.1172H98.4087V10.7437C98.4087 10.4595 98.3237 10.2339 98.1538 10.0669C97.9839 9.89697 97.7334 9.81201 97.4023 9.81201C97.1123 9.81201 96.8691 9.88525 96.6729 10.0317C96.4766 10.1782 96.3784 10.3555 96.3784 10.5635H95.561C95.561 10.3262 95.6445 10.0977 95.8115 9.87793C95.9814 9.65527 96.21 9.47949 96.4971 9.35059C96.7871 9.22168 97.105 9.15723 97.4507 9.15723C97.9985 9.15723 98.4277 9.29492 98.7383 9.57031C99.0488 9.84277 99.21 10.2192 99.2217 10.6997V12.8882C99.2217 13.3247 99.2773 13.6719 99.3887 13.9297V14H98.5361ZM97.187 13.3804C97.4419 13.3804 97.6836 13.3145 97.9121 13.1826C98.1406 13.0508 98.3062 12.8794 98.4087 12.6685V11.6929H97.7715C96.7754 11.6929 96.2773 11.9844 96.2773 12.5674C96.2773 12.8223 96.3623 13.0215 96.5322 13.165C96.7021 13.3086 96.9204 13.3804 97.187 13.3804ZM100.298 11.583C100.298 10.8535 100.471 10.2676 100.817 9.8252C101.163 9.37988 101.615 9.15723 102.175 9.15723C102.731 9.15723 103.172 9.34766 103.498 9.72852V7.25H104.311V14H103.563L103.524 13.4902C103.199 13.8887 102.746 14.0879 102.166 14.0879C101.615 14.0879 101.166 13.8623 100.817 13.4111C100.471 12.96 100.298 12.3711 100.298 11.6445V11.583ZM101.111 11.6753C101.111 12.2144 101.223 12.6362 101.445 12.9409C101.668 13.2456 101.976 13.3979 102.368 13.3979C102.884 13.3979 103.26 13.1665 103.498 12.7036V10.5195C103.254 10.0713 102.881 9.84717 102.377 9.84717C101.979 9.84717 101.668 10.001 101.445 10.3086C101.223 10.6162 101.111 11.0718 101.111 11.6753Z" fill="white"/>
<path d="M47.9946 28.186H43.313L42.3335 31H40.1504L44.7158 18.9141H46.6001L51.1738 31H48.9824L47.9946 28.186ZM43.9023 26.4927H47.4053L45.6538 21.479L43.9023 26.4927ZM54.6519 26.5093V31H52.5518V18.9141H57.1753C58.5256 18.9141 59.5964 19.2655 60.3877 19.9683C61.1846 20.6711 61.583 21.6007 61.583 22.7573C61.583 23.9416 61.1929 24.863 60.4126 25.5215C59.6379 26.18 58.5505 26.5093 57.1504 26.5093H54.6519ZM54.6519 24.8242H57.1753C57.9224 24.8242 58.4924 24.6499 58.8853 24.3013C59.2782 23.9471 59.4746 23.438 59.4746 22.7739C59.4746 22.1209 59.2754 21.6007 58.877 21.2134C58.4785 20.8205 57.9307 20.6185 57.2334 20.6074H54.6519V24.8242ZM66.8955 25.7788L65.5259 27.2314V31H63.4258V18.9141H65.5259V24.5835L66.688 23.1475L70.2241 18.9141H72.7642L68.2734 24.2681L73.0215 31H70.5312L66.8955 25.7788ZM85.3481 25.8784H80.4839V31H78.3838V18.9141H86.062V20.6074H80.4839V24.2017H85.3481V25.8784ZM89.6812 31H87.6641V22.0186H89.6812V31ZM87.5396 19.686C87.5396 19.3761 87.6364 19.1188 87.8301 18.9141C88.0293 18.7093 88.3115 18.6069 88.6768 18.6069C89.042 18.6069 89.3242 18.7093 89.5234 18.9141C89.7227 19.1188 89.8223 19.3761 89.8223 19.686C89.8223 19.9904 89.7227 20.245 89.5234 20.4497C89.3242 20.6489 89.042 20.7485 88.6768 20.7485C88.3115 20.7485 88.0293 20.6489 87.8301 20.4497C87.6364 20.245 87.5396 19.9904 87.5396 19.686ZM94.0308 31H92.0137V18.25H94.0308V31ZM100.19 31.166C98.9116 31.166 97.874 30.7648 97.0771 29.9624C96.2858 29.1545 95.8901 28.0809 95.8901 26.7417V26.4927C95.8901 25.5962 96.0617 24.7965 96.4048 24.0938C96.7534 23.3854 97.2404 22.8348 97.8657 22.4419C98.491 22.049 99.1883 21.8525 99.9575 21.8525C101.181 21.8525 102.124 22.2427 102.788 23.0229C103.458 23.8032 103.792 24.9072 103.792 26.335V27.1484H97.9238C97.9847 27.89 98.231 28.4766 98.6626 28.9082C99.0998 29.3398 99.6476 29.5557 100.306 29.5557C101.23 29.5557 101.983 29.1821 102.564 28.4351L103.651 29.4727C103.292 30.0094 102.81 30.4272 102.207 30.7261C101.609 31.0194 100.937 31.166 100.19 31.166ZM99.9492 23.4712C99.3958 23.4712 98.9476 23.6649 98.6045 24.0522C98.2669 24.4396 98.0511 24.9792 97.957 25.6709H101.8V25.5215C101.756 24.8464 101.576 24.3372 101.261 23.9941C100.945 23.6455 100.508 23.4712 99.9492 23.4712Z" fill="white"/>
</svg>

<svg width="113" height="40" fill="none" xmlns="http://www.w3.org/2000/svg"><path d="M0 4a4 4 0 0 1 4-4h105.001a4 4 0 0 1 4 4v32a4 4 0 0 1-4 4h-105a4 4 0 0 1-4-4V4Z" fill="#0E0E0E"/><path d="M25.524 24.086a.999.999 0 1 1-.002-1.997.999.999 0 0 1 .002 1.997Zm-11.046 0a.999.999 0 1 1-.002-1.997.999.999 0 0 1 .002 1.997Zm11.405-6.01 1.997-3.453a.414.414 0 0 0-.36-.623.415.415 0 0 0-.36.207l-2.022 3.497A12.346 12.346 0 0 0 20 16.608c-1.854 0-3.59.392-5.137 1.096l-2.022-3.497a.415.415 0 0 0-.72.415l1.997 3.454c-3.43 1.863-5.775 5.329-6.118 9.424h24c-.343-4.095-2.69-7.561-6.118-9.424ZM40.744 14V7.602h1.806c.556 0 1.049.123 1.476.369.428.246.758.596.99 1.05.233.454.352.976.355 1.564v.41c0 .603-.117 1.132-.352 1.586a2.44 2.44 0 0 1-.997 1.046c-.43.243-.933.367-1.507.373h-1.771Zm.843-5.704v5.014h.888c.65 0 1.156-.202 1.516-.606.364-.405.545-.98.545-1.727v-.374c0-.727-.171-1.29-.514-1.692-.34-.404-.823-.61-1.45-.615h-.985ZM47.406 14h-.813V9.245h.813V14Zm-.88-6.016a.49.49 0 0 1 .12-.334c.081-.09.202-.136.36-.136.158 0 .278.045.36.136a.48.48 0 0 1 .123.334.465.465 0 0 1-.123.33c-.082.087-.202.131-.36.131-.158 0-.279-.044-.36-.132a.474.474 0 0 1-.12-.33Zm4.483 1.99a2.437 2.437 0 0 0-.4-.03c-.533 0-.895.227-1.085.681V14h-.813V9.245h.791l.013.55c.267-.425.645-.638 1.134-.638.158 0 .278.02.36.062v.756Zm2.637 4.114c-.645 0-1.169-.211-1.573-.633-.404-.425-.607-.992-.607-1.7v-.15c0-.472.09-.892.268-1.261a2.11 2.11 0 0 1 .756-.87c.325-.211.677-.317 1.055-.317.618 0 1.099.204 1.441.611.343.407.515.99.515 1.75v.337h-3.222c.012.47.148.849.409 1.139.264.287.598.43 1.002.43.287 0 .53-.058.73-.175.199-.118.373-.273.522-.466l.497.386c-.398.613-.996.919-1.793.919Zm-.101-4.263c-.328 0-.604.12-.826.36-.223.238-.36.572-.413 1.002h2.382v-.061c-.024-.413-.135-.732-.335-.958-.199-.229-.468-.343-.808-.343Zm4.807 3.6c.29 0 .544-.089.76-.264a.927.927 0 0 0 .361-.66h.77a1.474 1.474 0 0 1-.282.778 1.848 1.848 0 0 1-.694.59c-.288.146-.592.219-.915.219-.647 0-1.162-.215-1.546-.646-.381-.434-.572-1.026-.572-1.776v-.136c0-.463.085-.874.255-1.235.17-.36.413-.64.73-.839.32-.2.696-.299 1.13-.299.532 0 .975.16 1.326.48.355.319.544.733.567 1.243h-.769a1.108 1.108 0 0 0-.351-.756 1.075 1.075 0 0 0-.774-.299c-.413 0-.734.15-.962.448-.226.296-.339.726-.339 1.288v.154c0 .548.113.97.339 1.265.225.296.548.444.966.444Zm3.907-5.331v1.151h.888v.629h-.888v2.948c0 .19.04.334.119.43.079.095.214.142.404.142.094 0 .223-.018.387-.053V14a2.356 2.356 0 0 1-.624.088c-.363 0-.637-.11-.822-.33-.184-.22-.277-.531-.277-.936V9.874h-.865v-.629h.865V8.094h.813Zm3.876 3.489c0-.73.173-1.315.519-1.758a1.638 1.638 0 0 1 1.358-.668c.556 0 .997.19 1.323.572V7.25h.813V14H69.4l-.04-.51c-.324.399-.777.598-1.357.598-.55 0-1-.226-1.35-.677-.345-.451-.518-1.04-.518-1.766v-.062Zm.813.092c0 .54.112.961.334 1.266.223.305.53.457.923.457.516 0 .892-.232 1.13-.694V10.52c-.244-.449-.617-.673-1.121-.673-.399 0-.71.154-.932.462-.222.307-.334.763-.334 1.366Zm4.25-.096c0-.466.09-.885.272-1.257.185-.372.44-.66.765-.862a2.092 2.092 0 0 1 1.12-.303c.648 0 1.17.224 1.57.673.4.448.601 1.044.601 1.788v.057c0 .463-.089.88-.268 1.248-.175.367-.429.652-.76.857a2.094 2.094 0 0 1-1.134.308c-.644 0-1.167-.224-1.569-.672-.398-.449-.597-1.042-.597-1.78v-.057Zm.817.096c0 .528.122.951.365 1.27.246.32.574.48.984.48.413 0 .742-.162.985-.484.243-.325.364-.78.364-1.362 0-.522-.124-.944-.373-1.266a1.173 1.173 0 0 0-.984-.488c-.402 0-.726.16-.972.48-.246.319-.369.776-.369 1.37Zm8.74 1.204.915-3.634h.813L81.099 14h-.66l-1.155-3.604L78.159 14h-.66l-1.38-4.755h.81l.935 3.56 1.108-3.56h.654l1.13 3.634Zm3.328-3.634.026.598a1.733 1.733 0 0 1 1.424-.686c1.005 0 1.511.567 1.52 1.7V14h-.813v-3.146c-.003-.343-.082-.597-.237-.76-.152-.165-.391-.247-.716-.247-.264 0-.496.07-.695.211-.199.14-.354.325-.466.554V14h-.813V9.245h.77ZM89.162 14h-.813V7.25h.813V14Zm1.09-2.421c0-.466.09-.885.272-1.257.184-.372.44-.66.765-.862a2.092 2.092 0 0 1 1.12-.303c.648 0 1.17.224 1.569.673.401.448.602 1.044.602 1.788v.057c0 .463-.09.88-.268 1.248-.176.367-.43.652-.76.857a2.094 2.094 0 0 1-1.134.308c-.645 0-1.168-.224-1.569-.672-.398-.449-.598-1.042-.598-1.78v-.057Zm.817.096c0 .528.121.951.365 1.27.246.32.574.48.984.48.413 0 .741-.162.984-.484.243-.325.365-.78.365-1.362 0-.522-.124-.944-.374-1.266a1.173 1.173 0 0 0-.984-.488c-.401 0-.725.16-.971.48-.246.319-.37.776-.37 1.37ZM98.536 14c-.047-.094-.085-.26-.114-.501-.378.393-.83.589-1.354.589-.468 0-.854-.132-1.155-.396a1.296 1.296 0 0 1-.449-1.01c0-.495.188-.88.563-1.152.378-.275.908-.413 1.59-.413h.792v-.373c0-.284-.085-.51-.255-.677-.17-.17-.42-.255-.752-.255-.29 0-.533.073-.73.22-.195.146-.294.323-.294.531h-.817c0-.237.083-.465.25-.685.17-.223.399-.399.686-.527.29-.13.608-.194.954-.194.548 0 .977.138 1.287.413.31.273.472.65.484 1.13v2.188c0 .437.055.784.167 1.042V14h-.853Zm-1.349-.62c.255 0 .497-.066.725-.197.229-.132.394-.304.497-.514v-.976h-.638c-.996 0-1.494.291-1.494.874 0 .255.085.454.255.598.17.144.388.215.655.215Zm3.111-1.797c0-.73.173-1.315.519-1.758a1.638 1.638 0 0 1 1.358-.668c.556 0 .997.19 1.323.572V7.25h.813V14h-.748l-.039-.51c-.325.399-.778.598-1.358.598-.551 0-1-.226-1.349-.677-.346-.451-.519-1.04-.519-1.766v-.062Zm.813.092c0 .54.112.961.334 1.266.223.305.531.457.923.457.516 0 .892-.232 1.13-.694V10.52c-.244-.449-.617-.673-1.121-.673-.398 0-.709.154-.932.462-.222.307-.334.763-.334 1.366ZM47.995 28.186h-4.682L42.333 31H40.15l4.566-12.086H46.6L51.174 31h-2.192l-.987-2.814Zm-4.093-1.693h3.503l-1.751-5.014-1.752 5.014Zm10.75.016V31h-2.1V18.914h4.623c1.35 0 2.421.351 3.213 1.054.797.703 1.195 1.633 1.195 2.79 0 1.184-.39 2.105-1.17 2.764-.775.658-1.862.987-3.263.987h-2.498Zm0-1.685h2.523c.747 0 1.317-.174 1.71-.523.393-.354.59-.863.59-1.527 0-.653-.2-1.173-.598-1.56-.399-.393-.946-.595-1.644-.607h-2.581v4.217Zm12.243.955-1.37 1.452V31h-2.1V18.914h2.1v5.67l1.163-1.436 3.536-4.234h2.54l-4.49 5.354L73.021 31h-2.49l-3.636-5.221Zm18.453.1h-4.864V31h-2.1V18.914h7.678v1.693h-5.578v3.595h4.864v1.676ZM89.681 31h-2.017v-8.981h2.017V31ZM87.54 19.686c0-.31.096-.567.29-.772.2-.205.481-.307.847-.307.365 0 .647.102.846.307.2.205.3.462.3.772 0 .304-.1.559-.3.764-.199.199-.481.299-.846.299-.366 0-.648-.1-.847-.3a1.068 1.068 0 0 1-.29-.763ZM94.03 31h-2.016V18.25h2.017V31Zm6.16.166c-1.278 0-2.316-.401-3.113-1.204-.791-.808-1.187-1.881-1.187-3.22v-.25c0-.896.172-1.695.515-2.398.348-.709.835-1.26 1.46-1.652a3.851 3.851 0 0 1 2.093-.59c1.223 0 2.166.39 2.83 1.17.67.781 1.004 1.885 1.004 3.313v.813h-5.868c.06.742.307 1.329.739 1.76.437.432.985.648 1.643.648.924 0 1.677-.374 2.258-1.12l1.087 1.037a3.653 3.653 0 0 1-1.444 1.253c-.598.293-1.27.44-2.017.44Zm-.24-7.695c-.554 0-1.002.194-1.346.581-.337.388-.553.927-.647 1.619h3.843v-.15c-.044-.675-.224-1.184-.539-1.527-.316-.349-.753-.523-1.312-.523Z" fill="#fff"/></svg>
